cypex/img/main/strengthsCenter__decor.svg

<svg width="868" height="445" viewBox="0 0 868 445" fill="none" xmlns="http://www.w3.org/2000/svg">
<path d="M434.771 331.453L434.271 331.453L434.271 331.455L434.771 331.453ZM435 387.572L435.5 387.572L435.5 387.57L435 387.572ZM435 438.973C433.527 438.973 432.333 440.167 432.333 441.64C432.333 443.113 433.527 444.307 435 444.307C436.472 444.307 437.666 443.113 437.666 441.64C437.666 440.167 436.472 438.973 435 438.973ZM865.25 315.333C863.777 315.333 862.583 316.527 862.583 318C862.583 319.473 863.777 320.667 865.25 320.667C866.722 320.667 867.916 319.473 867.916 318C867.916 316.527 866.722 315.333 865.25 315.333ZM2.75036 220.833C1.27758 220.833 0.0836695 222.027 0.0836694 223.5C0.0836694 224.973 1.27758 226.167 2.75036 226.167C4.22313 226.167 5.41704 224.973 5.41704 223.5C5.41704 222.027 4.22313 220.833 2.75036 220.833ZM50.7504 117.479L50.7504 116.979L50.7504 117.479ZM482.771 198.5L482.771 198L482.771 198.5ZM434.271 331.455L434.5 387.574L435.5 387.57L435.271 331.45L434.271 331.455ZM434.5 387.572L434.5 441.64L435.5 441.64L435.5 387.572L434.5 387.572ZM434.271 66.4623L434.271 331.453L435.271 331.453L435.271 66.4623L434.271 66.4623ZM434.271 66.4623L434.271 150.5L435.271 150.5L435.271 66.4623L434.271 66.4623ZM482.771 199L817.25 199L817.25 198L482.771 198L482.771 199ZM864.75 246.5L864.75 318L865.75 318L865.75 246.5L864.75 246.5ZM434.271 -1.88387e-05L434.271 45.9999L435.271 45.9999L435.271 -1.8795e-05L434.271 -1.88387e-05ZM434.271 45.9999L434.271 66.4623L435.271 66.4623L435.271 45.9999L434.271 45.9999ZM2.25036 165.479L2.25036 223.5L3.25036 223.5L3.25036 165.479L2.25036 165.479ZM434.271 66.4623L434.271 69.4793L435.271 69.4793L435.271 66.4623L434.271 66.4623ZM386.771 116.979L50.7504 116.979L50.7504 117.979L386.771 117.979L386.771 116.979ZM3.25036 165.479C3.25036 139.246 24.5168 117.979 50.7504 117.979L50.7504 116.979C23.9646 116.979 2.25036 138.694 2.25036 165.479L3.25036 165.479ZM434.271 69.4793C434.271 95.7129 413.005 116.979 386.771 116.979L386.771 117.979C413.557 117.979 435.271 96.2651 435.271 69.4793L434.271 69.4793ZM817.25 199C843.483 199 864.75 220.266 864.75 246.5L865.75 246.5C865.75 219.714 844.035 198 817.25 198L817.25 199ZM434.271 150.5C434.271 177.286 455.985 199 482.771 199L482.771 198C456.537 198 435.271 176.734 435.271 150.5L434.271 150.5Z" fill="url(#paint0_linear_2_1218)"/>
<defs>
<linearGradient id="paint0_linear_2_1218" x1="135.443" y1="441.64" x2="151.477" y2="-24.5505" gradientUnits="userSpaceOnUse">
<stop stop-color="#E5FF5D"/>
<stop offset="1" stop-color="#5DFFFF"/>
</linearGradient>
</defs>
</svg>

<svg width="868" height="445" fill="none" xmlns="http://www.w3.org/2000/svg"><path d="M434.771 331.453h-.5v.002l.5-.002Zm.229 56.119h.5v-.002l-.5.002Zm0 51.401a2.667 2.667 0 1 0 0 5.334 2.667 2.667 0 0 0 0-5.334Zm430.25-123.64a2.667 2.667 0 1 0 0 5.334 2.667 2.667 0 0 0 0-5.334Zm-862.5-94.5a2.667 2.667 0 1 0 0 5.334 2.667 2.667 0 0 0 0-5.334Zm48-103.354v-.5.5ZM482.771 198.5v-.5.5Zm-48.5 132.955.229 56.119 1-.004-.229-56.12-1 .005Zm.229 56.117v54.068h1v-54.068h-1Zm-.229-321.11v264.991h1V66.463h-1Zm0 0V150.5h1V66.462h-1ZM482.771 199H817.25v-1H482.771v1Zm381.979 47.5V318h1v-71.5h-1ZM434.271 0v46h1V0h-1Zm0 46v20.462h1V46h-1ZM2.251 165.479V223.5h1v-58.021h-1Zm432.02-99.017v3.017h1v-3.017h-1Zm-47.5 50.517H50.751v1h336.02v-1Zm-383.52 48.5c0-26.233 21.266-47.5 47.5-47.5v-1c-26.786 0-48.5 21.715-48.5 48.5h1Zm431.02-96c0 26.234-21.266 47.5-47.5 47.5v1c26.786 0 48.5-21.714 48.5-48.5h-1ZM817.25 199c26.233 0 47.5 21.266 47.5 47.5h1c0-26.786-21.715-48.5-48.5-48.5v1Zm-382.979-48.5c0 26.786 21.714 48.5 48.5 48.5v-1c-26.234 0-47.5-21.266-47.5-47.5h-1Z" fill="url(#a)"/><defs><linearGradient id="a" x1="135.443" y1="441.64" x2="151.477" y2="-24.55" gradientUnits="userSpaceOnUse"><stop stop-color="#E5FF5D"/><stop offset="1" stop-color="#5DFFFF"/></linearGradient></defs></svg>
